godot/editor/icons/NodePath.svg

<svg height="12" viewBox="0 0 16 12" width="16" xmlns="http://www.w3.org/2000/svg"><path d="m0 2v8h2v-2a3 3 0 0 0 3-3 3 3 0 0 0 -3-3zm6 0v5a3 3 0 0 0 3 3h1v-2h-1a1 1 0 0 1 -1-1v-1h2v-2h-2v-2zm5 0v8h2v-4a1 1 0 0 1 1 1v3h2v-3a3 3 0 0 0 -3-3v-2zm-9 2a1 1 0 0 1 1 1 1 1 0 0 1 -1 1z" fill="#417aec"/></svg>

<svg height="12" viewBox="0 0 16 12" width="16" xmlns="http://www.w3.org/2000/svg"><path d="M0 2v8h2V8a3 3 0 0 0 0-6zm6 0v5a3 3 0 0 0 3 3h1V8H9a1 1 0 0 1-1-1V6h2V4H8V2zm5 0v8h2V6a1 1 0 0 1 1 1v3h2V7a3 3 0 0 0-3-3V2zM2 4a1 1 0 0 1 0 2z" fill="#417aec"/></svg>
